X:11
T:Mandalena
O:Greek (Rembetika)
M:9/8
K:C
|:E/2F/2E/2D/2CEE/2D/2D/2C/2C/2D/2E/2F/2G|
E/2F/2E/2D/2CEE/2D/2D/2C/2C/2>G,/2C/2G,/2C:|
|:F4F/2F/2F/2E/2GG/2^F/2_E|
^F/2G/2A/2_B/2c/2B/2A/2G/2F/2G/2A/2F/2GGG|
F4F/2F/2F/2E/2GG/2^F/2_E|
^FGF_E/2C/2B,/2C/2D/2B,/2CC/2G,/2C:|
|:E/2F/2E/2D/2CEE/2D/2D/2C/2C/2D/2E/2F/2G|
E/2F/2E/2D/2CEE/2D/2D/2C/2C/2G,/2C/2G,/2C:|
|:F4F/2F/2F/2E/2GG/2^F/2_E|
^F/2G/2A/2_B/2c/2B/2A/2G/2F/2G/2A/2F/2GGG|
F4F/2F/2F/2E/2GG/2^F/2_E|
^FGF_E/2C/2B,/2C/2D/2B,/2CC/2G,/2C:|
|:C2C2B,/2C/2D/2B,/2CC/2G,/2C:|
|:D_ED>CB,/2C/2D/2B,/2CC/2G,/2C:|
|:E/2F/2E/2D/2CEE/2D/2D/2C/2C/2D/2E/2F/2G|
E/2F/2E/2D/2CEE/2D/2D/2C/2C/2G,/2C/2G,/2C:|
|:F4F/2F/2F/2E/2GG/2^F/2_E|
^F/2G/2A/2_B/2c/2B/2A/2G/2F/2G/2A/2F/2GGG|
F4F/2F/2F/2E/2GG/2^F/2_E|
^FGF_E/2C/2B,/2C/2D/2B,/2CC/2G,/2C:|
A/2B/2c/2B/2c/2B/2c/2B/2c/2B/2c/2B/2d/2c/2_B/2A/2G|
A_BA>G^F/2G/2A/2F/2GD/2B,/2G,|
A/2B/2c/2B/2c/2B/2c/2B/2c/2B/2c/2B/2d/2c/2_B/2A/2G|
A_BA>G^F/2_E/2E/2D/2CG,C||
